X: 40698
T: Torosay Castle
R: waltz
M: 3/4
K: Dmajor
d>e|f2 A2 f>e|d2 f2 e>d|c2 A2 ce|d2 f2
d>e|f2 A2 f>e|d2 f2 e>d|c2 e2 g/f/e/f/|d2 d2:|
f>g|a2 d2 g/f/e/d/|c2 e2 e>f|g2 c2 a/g/f/e/|d2 f2
f>g|a2 f2 gc|d2 e2 e>f|g2 c2 a/g/f/e/|d2 d2:|
A2|A2 ce gA|d2 f2 e/f/g/e/|c2 A2 f/g/a/f/|a2 f2
A2|A2 ce g/e/c/A/|d2 f2 e/f/g/e/|c2 a2 a/g/f/e/|d2 d2:|
f>g|a2 d2 a>d|c2 a2 ac|c2 a2 ac|d2 a2
fg|a2 d2 d/e/d/B/|c2 a2 ac|c2 a2 a/g/f/e/|d2 d2:|

